X:1
T:Title
%%score { 1 | 2 }
L:1/8
M:4/4
K:F
V:1 treble nm="Grand Piano"
V:2 bass 
V:1
 z4 z2[Q:1/4=100] AB | d2 c2 A2 FG | [DF]2 D2 C4 | F2 FG A[GB][Ac][FA] |[M:3/4] [EG]3 [FA] [EG]2 | %5
[M:1/4] AB |[M:4/4] d2 c2 A2 FG | [DF]2 D2 C4 | c2 cd cAGF |[M:3/4] [EG]4 F2 |[M:1/4] c>c | %11
[M:4/4] c4 A2 [Af]>[Af] | f4 d4 | c3 d c2 A2 |[M:3/4] [EG]3 [FA] [EG]2 |[M:1/4] [Ec]>[Ec] | %16
[M:4/4] [Fc]4 [FA]2 [Af]>[Af] | f4 d4 | c2 cd cAGF |[M:3/4] [EG]4 [CF]2 |] %20
V:2
 z4 z2 [F,CF]2 | [F,B,F]2 [F,A,F]2 [F,CF]2 [F,A,C]2 | [B,,B,]2 [B,,F,B,]2 [F,A,]4 | %3
 [F,A,C]2 [F,A,C][F,B,C] [F,CF][F,C][F,C][F,C] |[M:3/4] [C,C]4 [C,C]2 |[M:1/4] [F,CF]2 | %6
[M:4/4] [F,B,F]2 [F,A,F]2 [F,CF]2 [F,A,C]2 | [B,,B,]2 [B,,F,B,]2 [F,A,]4 | %8
 [F,A,F]2 [F,A,F][F,B,F] [F,A,F][F,CF][F,B,C][F,A,C] |[M:3/4] [C,B,]4 [F,A,C]2 | %10
[M:1/4] [F,A,F]>[F,A,F] |[M:4/4] [F,A,F]4 [F,CF]2 [F,C]>[F,C] | [B,DB]4 [B,F]4 | %13
 [F,A,F]3 [F,B,F] [F,A,F]2[K:bass] [F,CF]2 |[M:3/4] [C,C]4 [C,C]2 |[M:1/4] [C,G,]>[C,G,] | %16
[M:4/4] [F,A,]4 [F,C]2 [F,C]>[F,C] | [B,DB]4 [B,F]4 | %18
 [F,A,F]2 [F,A,F][F,B,F][K:bass] [F,A,F][F,CF][F,B,C][F,A,C] |[M:3/4] [C,B,]4 [F,A,]2 |] %20

